icons/outline/adjustments-share.svg

<!--
category: System
tags: [settings, distribute, spread, transmit, broadcast, impart, exchange, pass, disseminate, convey]
version: "2.10"
unicode: "f80a"
-->
<svg
  xmlns="http://www.w3.org/2000/svg"
  width="24"
  height="24"
  viewBox="0 0 24 24"
  fill="none"
  stroke="currentColor"
  stroke-width="2"
  stroke-linecap="round"
  stroke-linejoin="round"
>
  <path d="M4 10a2 2 0 1 0 4 0a2 2 0 0 0 -4 0m2 -6v4m0 4v8m7.387 -5.44a2 2 0 1 0 -.798 3.352m-.589 -13.912v10m0 4v2m4 -13a2 2 0 1 0 4 0a2 2 0 0 0 -4 0m2 -3v1m-2 17l5 -5m0 4.5v-4.5h-4.5m1.5 -8v4" />
</svg>

<!--
category: System
tags: [settings, distribute, spread, transmit, broadcast, impart, exchange, pass, disseminate, convey]
version: "2.10"
unicode: "f80a"
-->
<svg
  xmlns="http://www.w3.org/2000/svg"
  width="24"
  height="24"
  viewBox="0 0 24 24"
  fill="none"
  stroke="currentColor"
  stroke-width="2"
  stroke-linecap="round"
  stroke-linejoin="round"
>
    <path d="M4 10a2 2 0 1 0 4 0a2 2 0 0 0 -4 0M6 4v4M6 12v8M13.387 14.56a2 2 0 1 0 -.798 3.352M12 4v10M12 18v2M16 7a2 2 0 1 0 4 0a2 2 0 0 0 -4 0M18 4v1M16 22l5 -5M21 21.5v-4.5h-4.5M18 9v4" />
</svg>
